X:295
T: Der Weinkenner
N: A0338
O: Europa, Mitteleuropa, Deutschland
N: Reutterliedlein 1535 No. 4
R: Romanze, Ballade, Lied, Trinklied
M: 4/1
L: 1/4
K: F
 |  |  |  |  | F8A4B4 | c4c4d4d4 | c8z4
f4 | e4d4c4B4 | A4G2A4GFG4 | F8z8
F8A4B4 | c4c4d4d4 | c8z4
f4 | e4d4c4B4 | A4G2A4GFG4 | F8z4
c4 | A4B4c4d4 | c2f4e2f8 | z4
f4c4d4 | A6G2A2B2G4 | F8 | z4
c4c4c4 | G4B4B4B4 | A8z4
c4 | f4e2d4c2B4 | A8z4
A4 | c4c4A4A4 | c4c4F8 | z4
f4e4d4 | g4f2g4fed4 | c8

